svg/s/GQ.svg

<svg width="16" height="12" viewBox="0 0 16 12" fill="none" xmlns="http://www.w3.org/2000/svg">
<mask id="mask0" mask-type="alpha" maskUnits="userSpaceOnUse" x="0" y="0" width="16" height="12">
<rect width="16" height="12" fill="white"/>
</mask>
<g mask="url(#mask0)">
<path fill-rule="evenodd" clip-rule="evenodd" d="M0 0V12.288H16.384V0H0Z" fill="#F7FCFF"/>
<mask id="mask1" mask-type="alpha" maskUnits="userSpaceOnUse" x="0" y="0" width="17" height="13">
<path fill-rule="evenodd" clip-rule="evenodd" d="M0 0V12.288H16.384V0H0Z" fill="white"/>
</mask>
<g mask="url(#mask1)">
<path fill-rule="evenodd" clip-rule="evenodd" d="M0 0V4.096H16.384V0H0Z" fill="#009D00"/>
<path fill-rule="evenodd" clip-rule="evenodd" d="M0 4.09595V8.19195H16.384V4.09595H0Z" fill="white"/>
<path fill-rule="evenodd" clip-rule="evenodd" d="M0 8.19202V12.288H16.384V8.19202H0Z" fill="#F80000"/>
</g>
<path fill-rule="evenodd" clip-rule="evenodd" d="M0 0V12.288L4.096 6.2218L0 0Z" fill="#0075D5"/>
<mask id="mask2" mask-type="alpha" maskUnits="userSpaceOnUse" x="0" y="0" width="5" height="13">
<path fill-rule="evenodd" clip-rule="evenodd" d="M0 0V12.288L4.096 6.2218L0 0Z" fill="white"/>
</mask>
<g mask="url(#mask2)">
</g>
<path d="M7.46043 4.55018L7.46295 4.56136L7.44694 4.54657L7.3444 4.45184L7.33158 4.59085L7.34299 4.59191L7.32398 4.60256L7.20219 4.67081L7.33044 4.72596L7.33497 4.71544L7.33923 4.73681L7.36651 4.87373L7.45859 4.7688L7.44998 4.76124L7.47162 4.76379L7.61027 4.78016L7.53892 4.66016L7.52907 4.66601L7.53819 4.64622L7.5966 4.51941L7.46043 4.55018Z" fill="#FFD500" stroke="black" stroke-width="0.03"/>
<path d="M7.97242 4.55018L7.97495 4.56136L7.95894 4.54657L7.85639 4.45184L7.84357 4.59085L7.85498 4.59191L7.83597 4.60256L7.71418 4.67081L7.84244 4.72596L7.84696 4.71544L7.85122 4.73681L7.8785 4.87373L7.97058 4.7688L7.96197 4.76124L7.98362 4.76379L8.12226 4.78016L8.05092 4.66016L8.04107 4.66601L8.05019 4.64622L8.1086 4.51941L7.97242 4.55018Z" fill="#FFD500" stroke="black" stroke-width="0.03"/>
<path d="M8.48443 4.55018L8.48696 4.56136L8.47095 4.54657L8.3684 4.45184L8.35558 4.59085L8.36699 4.59191L8.34798 4.60256L8.22619 4.67081L8.35445 4.72596L8.35897 4.71544L8.36323 4.73681L8.39051 4.87373L8.48259 4.7688L8.47398 4.76124L8.49562 4.76379L8.63427 4.78016L8.56293 4.66016L8.55308 4.66601L8.5622 4.64622L8.6206 4.51941L8.48443 4.55018Z" fill="#FFD500" stroke="black" stroke-width="0.03"/>
<path d="M8.99642 4.55018L8.99895 4.56136L8.98294 4.54657L8.88039 4.45184L8.86758 4.59085L8.87899 4.59191L8.85997 4.60256L8.73819 4.67081L8.86644 4.72596L8.87097 4.71544L8.87522 4.73681L8.9025 4.87373L8.99459 4.7688L8.98597 4.76124L9.00762 4.76379L9.14626 4.78016L9.07492 4.66016L9.06507 4.66601L9.07419 4.64622L9.1326 4.51941L8.99642 4.55018Z" fill="#FFD500" stroke="black" stroke-width="0.03"/>
<path d="M9.50843 4.55018L9.51096 4.56136L9.49495 4.54657L9.3924 4.45184L9.37958 4.59085L9.39099 4.59191L9.37198 4.60256L9.25019 4.67081L9.37845 4.72596L9.38297 4.71544L9.38723 4.73681L9.41451 4.87373L9.50659 4.7688L9.49798 4.76124L9.51963 4.76379L9.65827 4.78016L9.58693 4.66016L9.57708 4.66601L9.5862 4.64622L9.64461 4.51941L9.50843 4.55018Z" fill="#FFD500" stroke="black" stroke-width="0.03"/>
<path d="M10.0204 4.55018L10.023 4.56136L10.0069 4.54657L9.90439 4.45184L9.89158 4.59085L9.90299 4.59191L9.88397 4.60256L9.76219 4.67081L9.89044 4.72596L9.89497 4.71544L9.89923 4.73681L9.92651 4.87373L10.0186 4.7688L10.01 4.76124L10.0316 4.76379L10.1703 4.78016L10.0989 4.66016L10.0891 4.66601L10.0982 4.64622L10.1566 4.51941L10.0204 4.55018Z" fill="#FFD500" stroke="black" stroke-width="0.03"/>
<path d="M7.70999 5.15H9.69799V6.65599C9.69799 7.20497 9.25296 7.64999 8.70399 7.64999C8.15502 7.64999 7.70999 7.20497 7.70999 6.65599V5.15Z" stroke="#373737" stroke-width="0.06"/>
<path fill-rule="evenodd" clip-rule="evenodd" d="M8.56391 6.12348C8.56391 6.12348 8.46063 7.3345 8.35753 7.40789C8.25444 7.48128 8.85158 7.51793 8.90864 7.46291C8.9657 7.40789 8.64823 6.42106 8.75744 6.12348C8.86665 5.82589 9.04255 5.80178 9.04255 5.80178C9.04255 5.80178 8.8208 5.75491 8.75744 5.8442C8.69407 5.9335 8.50509 5.80178 8.50509 5.80178L8.56391 6.12348Z" fill="#6F3E1D"/>
<path fill-rule="evenodd" clip-rule="evenodd" d="M8.54132 6.05505H8.46186C8.46186 6.05505 8.40807 6.26535 8.28467 6.1602C8.16128 6.05505 7.9872 6.09211 7.9872 6.09211C7.9872 6.09211 8.00281 5.96627 8.19226 5.91624C8.38171 5.86621 8.46186 5.45997 8.46186 5.45997C8.46186 5.45997 8.72996 5.36018 8.89307 5.56469C9.05617 5.76919 9.28594 5.68194 9.28594 5.68194C9.28594 5.68194 9.45387 5.77743 9.36991 5.91624C9.28594 6.05505 9.14269 6.15659 9.01788 6.05505C8.89307 5.9535 8.54132 6.05505 8.54132 6.05505Z" fill="#009D29"/>
</g>
</svg>

<svg width="16" height="12" fill="none" xmlns="http://www.w3.org/2000/svg">
  <mask id="a" maskUnits="userSpaceOnUse" x="0" y="0" width="16" height="12">
    <path fill="#fff" d="M0 0h16v12H0z"/>
  </mask>
  <g mask="url(#a)">
    <path fill-rule="evenodd" clip-rule="evenodd" d="M0 0v12.288h16.384V0H0z" fill="#F7FCFF"/>
    <mask id="b" maskUnits="userSpaceOnUse" x="0" y="0" width="17" height="13">
      <path fill-rule="evenodd" clip-rule="evenodd" d="M0 0v12.288h16.384V0H0z" fill="#fff"/>
    </mask>
    <g mask="url(#b)" fill-rule="evenodd" clip-rule="evenodd">
      <path d="M0 0v4.096h16.384V0H0z" fill="#009D00"/>
      <path d="M0 4.096v4.096h16.384V4.096H0z" fill="#fff"/>
      <path d="M0 8.192v4.096h16.384V8.192H0z" fill="#F80000"/>
    </g>
    <path fill-rule="evenodd" clip-rule="evenodd" d="M0 0v12.288l4.096-6.066L0 0z" fill="#0075D5"/>
    <path d="M7.46 4.55l.003.011-.016-.014-.103-.095-.012.139h.011l-.019.012-.122.068.128.055.005-.01.004.02.028.138.092-.105-.009-.008.022.003.138.016-.071-.12-.01.006.01-.02.058-.127-.137.031zm.512 0l.003.011-.016-.014-.103-.095-.012.139h.011l-.02.012-.12.068.127.055.005-.01.004.02.027.138.093-.105-.01-.008.023.003.138.016-.071-.12-.01.006.01-.02.058-.127-.137.031zm.512 0l.003.011-.016-.014-.103-.095-.012.139h.011l-.019.012-.122.068.129.055.004-.01.004.02.028.138.092-.105-.009-.008.022.003.138.016-.071-.12-.01.006.01-.02.058-.127-.137.031zm.512 0L9 4.561l-.016-.014-.103-.095-.012.139h.011l-.019.012-.122.068.128.055.005-.01.004.02.028.138.092-.105-.009-.008.022.003.138.016-.071-.12-.01.006.01-.02.058-.127-.137.031zm.512 0l.003.011-.016-.014-.103-.095-.012.139h.011l-.019.012-.122.068.128.055.005-.01.004.02.027.138.093-.105-.009-.008.022.003.138.016-.071-.12-.01.006.01-.02.058-.127-.137.031zm.512 0l.003.011-.016-.014-.103-.095-.012.139h.011l-.019.012-.122.068.129.055.004-.01.004.02.028.138.092-.105-.009-.008.022.003.138.016-.071-.12-.01.006.01-.02.058-.127-.136.031z" fill="#FFD500" stroke="#000" stroke-width=".03"/>
    <path d="M7.71 5.15h1.988v1.506a.994.994 0 11-1.988 0V5.15z" stroke="#373737" stroke-width=".06"/>
    <path fill-rule="evenodd" clip-rule="evenodd" d="M8.564 6.123s-.103 1.211-.206 1.285c-.104.073.494.11.55.055.058-.055-.26-1.042-.15-1.34.109-.297.285-.321.285-.321s-.222-.047-.286.042c-.063.09-.252-.042-.252-.042l.059.321z" fill="#6F3E1D"/>
    <path fill-rule="evenodd" clip-rule="evenodd" d="M8.541 6.055h-.08s-.053.21-.176.105c-.124-.105-.298-.068-.298-.068s.016-.126.205-.176c.19-.05.27-.456.27-.456s.268-.1.431.105c.163.204.393.117.393.117s.168.095.084.234-.227.24-.352.139c-.125-.102-.477 0-.477 0z" fill="#009D29"/>
  </g>
</svg>
